X: 1
T: Cathcart
C: Phil Cunningham
R: waltz
Z: 2013 John Chambers <jc:trillian.mit.edu>
S: PDF image from Lance Ramshaw 2013-11-2
N: Corrected a few missing/incorrect dots.
M: 3/4
L: 1/8
K: D
A, B,<D |\
E2 A,>G F<D | E3 A, B,<D | E2 F>G F<B, | D2 A, B,<D |\
E2 A,>G F<D | E2 A>G F<A | D2 G>B, A,<G, | A,3 :|
|: A AG |\
F2 A>G F<D | G3 B, B,C | D2 G,>E D<B, | D3 A, B,<D |\
E2 A,>G F<D | E2 A>G F<A | D2 G>B, A,<G, | A,3 :|
